src/32x32/places/folder-gruvbox-original-purple-owncloud.svg

<svg xmlns="http://www.w3.org/2000/svg" width="32" height="32" version="1">
 <rect style="opacity:0.2" width="28" height="18" x="2" y="11" rx="1.4" ry="1.4"/>
 <path style="fill:#8f3f71" d="M 2,22.6 C 2,23.376 2.6244,24 3.4,24 H 28.6 C 29.376,24 30,23.376 30,22.6 V 7.4 C 30,6.6244 29.376,6 28.6,6 H 16 C 13.9,6 13.2,3 11.1,3 H 3.4 C 2.6244,3 2,3.6244 2,4.4"/>
 <rect style="opacity:0.2" width="28" height="18" x="2" y="9" rx="1.4" ry="1.4"/>
 <rect style="fill:#E1D4B6" width="24" height="11" x="4" y="8" rx="1.4" ry="1.4"/>
 <rect style="fill:#d3869b" width="28" height="18" x="2" y="10" rx="1.4" ry="1.4"/>
 <path style="opacity:0.1;fill:#E1D4B6" d="M 3.4004,3 C 2.6248,3 2,3.6248 2,4.4004 V 5.4004 C 2,4.6248 2.6248,4 3.4004,4 H 11.1 C 13.2,4 13.9,7 16,7 H 28.6 C 29.375,7 30,7.6248 30,8.4004 V 7.4004 C 30,6.6248 29.375,6 28.6,6 H 16 C 13.9,6 13.2,3 11.1,3 Z"/>
 <path style="fill:#393534" d="m 15.75,14.5 c -1.245601,0 -2.25,1.004399 -2.25,2.25 0,0.386162 0.09725,0.74935 0.267578,1.066406 C 14.409258,17.014481 15.395081,16.5 16.5,16.5 c 0.536275,0 1.043564,0.121459 1.498047,0.33789 C 17.999147,16.808481 18,16.77969 18,16.75 18,15.504399 16.995601,14.5 15.75,14.5 Z M 13.25,15 C 12.556684,15 12,15.556684 12,16.25 c 0,0.05075 0.002,0.10127 0.0078,0.15039 0.328783,-0.189753 0.696161,-0.319907 1.087891,-0.373046 0.09864,-0.361191 0.271402,-0.692437 0.498046,-0.978516 C 13.484467,15.017858 13.36958,15 13.25,15 Z m 5.198242,1 c -0.01728,2.67e-4 -0.03468,0.001 -0.05176,0.002 0.06761,0.237777 0.103516,0.488739 0.103516,0.748 0,0.123126 -0.0077,0.244382 -0.02343,0.363281 0.388105,0.266571 0.719717,0.609625 0.973633,1.006836 A 2.75,2.75 0 0 1 20.25,18 2.75,2.75 0 0 1 20.5,18.01172 c 2.3e-5,-0.0039 0,-0.0078 0,-0.01172 0,-1.10753 -0.89247,-2 -2,-2 -0.01731,0 -0.03448,-2.67e-4 -0.05176,0 z m -5.440429,0.548828 C 11.861373,16.776929 11,17.785174 11,19 c 0,0.856229 0.428265,1.610236 1.082031,2.060547 0.23345,-0.289131 0.572698,-0.490396 0.957032,-0.544922 C 13.014043,20.347183 13,20.175361 13,20 13,19.370732 13.167008,18.779933 13.458985,18.269531 13.16919,17.833978 13,17.310986 13,16.75 c 0,-0.06789 0.003,-0.134568 0.0078,-0.201172 z M 16.5,17 c -1.659814,0 -3,1.340186 -3,3 0,1.659814 1.340186,3 3,3 1.659814,0 3,-1.340186 3,-3 0,-1.659814 -1.340186,-3 -3,-3 z m 3.75,1.5 A 2.25,2.25 0 0 0 19.695313,18.573242 3.5,3.5 0 0 1 20,20 3.5,3.5 0 0 1 18.896484,22.541015 2.25,2.25 0 0 0 20.25,23 2.25,2.25 0 0 0 22.5,20.75 2.25,2.25 0 0 0 20.25,18.5 Z M 10.5,19.0625 C 9.636181,19.283865 9,20.065522 9,21 c 0,1.10753 0.89247,2 2,2 0.347054,0 0.673057,-0.08776 0.957031,-0.242188 C 11.825527,22.535084 11.75,22.27631 11.75,22 c 0,-0.176776 0.03119,-0.346185 0.08789,-0.503906 C 11.048195,20.968487 10.522908,20.076272 10.501953,19.0625 Z M 22.986328,21 c -0.05778,0.636708 -0.331391,1.211107 -0.75,1.648437 C 22.419271,22.863709 22.69313,23 23,23 c 0.555245,0 1,-0.444755 1,-1 0,-0.555245 -0.444755,-1 -1,-1 -0.0047,0 -0.009,-6.3e-5 -0.01367,0 z m -9.839843,0.0059 C 12.640114,21.056719 12.25,21.479458 12.25,22 c 0,0.555245 0.444755,1 1,1 0.356187,0 0.666741,-0.18313 0.84375,-0.460938 -0.360658,-0.342185 -0.648375,-0.760335 -0.83789,-1.228515 -0.01065,-0.02631 -0.02123,-0.05346 -0.03125,-0.08008 -0.02774,-0.07371 -0.05337,-0.148649 -0.07617,-0.22461 z"/>
</svg>

<?xml version="1.0" encoding="UTF-8"?>
<svg width="32" height="32" version="1" xmlns="http://www.w3.org/2000/svg">
 <rect x="2" y="11" width="28" height="18" rx="1.4" ry="1.4" opacity=".2"/>
 <path d="m2 22.6c0 0.776 0.6244 1.4 1.4 1.4h25.2c0.776 0 1.4-0.624 1.4-1.4v-15.2c0-0.7756-0.624-1.4-1.4-1.4h-12.6c-2.1 0-2.8-3-4.9-3h-7.7c-0.7756 0-1.4 0.6244-1.4 1.4" fill="#8f3f71"/>
 <rect x="2" y="9" width="28" height="18" rx="1.4" ry="1.4" opacity=".2"/>
 <rect x="4" y="8" width="24" height="11" rx="1.4" ry="1.4" fill="#E1D4B6"/>
 <rect x="2" y="10" width="28" height="18" rx="1.4" ry="1.4" fill="#d3869b"/>
 <path d="m3.4004 3c-0.7756 0-1.4004 0.6248-1.4004 1.4004v1c0-0.7756 0.6248-1.4004 1.4004-1.4004h7.6996c2.1 0 2.8 3 4.9 3h12.6c0.775 0 1.4 0.6248 1.4 1.4004v-1c0-0.7756-0.625-1.4004-1.4-1.4004h-12.6c-2.1 0-2.8-3-4.9-3z" fill="#E1D4B6" opacity=".1"/>
 <path d="m15.75 14.5c-1.2456 0-2.25 1.0044-2.25 2.25 0 0.38616 0.09725 0.74935 0.26758 1.0664 0.64168-0.80192 1.6275-1.3164 2.7324-1.3164 0.53628 0 1.0436 0.12146 1.498 0.33789 0.0011-0.029409 0.001953-0.0582 0.001953-0.08789 0-1.2456-1.0044-2.25-2.25-2.25zm-2.5 0.5c-0.69332 0-1.25 0.55668-1.25 1.25 0 0.05075 2e-3 0.10127 0.0078 0.15039 0.32878-0.18975 0.69616-0.31991 1.0879-0.37305 0.09864-0.36119 0.2714-0.69244 0.49805-0.97852-0.10927-0.03097-0.22416-0.048828-0.34374-0.048828zm5.1982 1c-0.01728 2.67e-4 -0.03468 1e-3 -0.05176 2e-3 0.06761 0.23778 0.10352 0.48874 0.10352 0.748 0 0.12313-0.0077 0.24438-0.02343 0.36328 0.3881 0.26657 0.71972 0.60962 0.97363 1.0068a2.75 2.75 0 0 1 0.7998-0.12012 2.75 2.75 0 0 1 0.25 0.01172c2.3e-5 -0.0039 0-0.0078 0-0.01172 0-1.1075-0.89247-2-2-2-0.01731 0-0.03448-2.67e-4 -0.05176 0zm-5.4404 0.54883c-1.1464 0.2281-2.0078 1.2363-2.0078 2.4512 0 0.85623 0.42826 1.6102 1.082 2.0605 0.23345-0.28913 0.5727-0.4904 0.95703-0.54492-0.02502-0.16844-0.039063-0.34026-0.039063-0.51562 0-0.62927 0.16701-1.2201 0.45898-1.7305-0.2898-0.43555-0.45898-0.95854-0.45898-1.5195 0-0.06789 3e-3 -0.13457 0.0078-0.20117zm3.4922 0.45117c-1.6598 0-3 1.3402-3 3s1.3402 3 3 3 3-1.3402 3-3-1.3402-3-3-3zm3.75 1.5a2.25 2.25 0 0 0-0.55469 0.073242 3.5 3.5 0 0 1 0.30469 1.4268 3.5 3.5 0 0 1-1.1035 2.541 2.25 2.25 0 0 0 1.3535 0.45898 2.25 2.25 0 0 0 2.25-2.25 2.25 2.25 0 0 0-2.25-2.25zm-9.75 0.5625c-0.86382 0.22136-1.5 1.003-1.5 1.9375 0 1.1075 0.89247 2 2 2 0.34705 0 0.67306-0.08776 0.95703-0.24219-0.1315-0.22273-0.20703-0.4815-0.20703-0.75781 0-0.17678 0.03119-0.34618 0.08789-0.50391-0.7897-0.52761-1.315-1.4198-1.3359-2.4336zm12.486 1.9375c-0.05778 0.63671-0.33139 1.2111-0.75 1.6484 0.18294 0.21527 0.4568 0.35156 0.76367 0.35156 0.55524 0 1-0.44476 1-1s-0.44476-1-1-1c-0.0047 0-9e-3 -6.3e-5 -0.01367 0zm-9.8398 0.0059c-0.50637 0.050819-0.89648 0.47356-0.89648 0.9941 0 0.55524 0.44476 1 1 1 0.35619 0 0.66674-0.18313 0.84375-0.46094-0.36066-0.34218-0.64838-0.76034-0.83789-1.2285-0.01065-0.02631-0.02123-0.05346-0.03125-0.08008-0.02774-0.07371-0.05337-0.14865-0.07617-0.22461z" fill="#393534"/>
</svg>
